assets/icons/qvision/texture.svg

<svg xmlns="http://www.w3.org/2000/svg" height="24" viewBox="0 0 24 24" width="24"><path d="M0 0h24v24H0z" fill="none"/><path d="M19.51 3.08L3.08 19.51c.09.34.27.65.51.9.25.24.56.42.9.51L20.93 4.49c-.19-.69-.73-1.23-1.42-1.41zM11.88 3L3 11.88v2.83L14.71 3h-2.83zM5 3c-1.1 0-2 .9-2 2v2l4-4H5zm14 18c.55 0 1.05-.22 1.41-.59.37-.36.59-.86.59-1.41v-2l-4 4h2zm-9.71 0h2.83L21 12.12V9.29L9.29 21z"/></svg>

<svg width="24" height="24" viewBox="0 0 24 24" fill="none" xmlns="http://www.w3.org/2000/svg">
<g clip-path="url(#clip0_147_3737)">
<path d="M19.51 3.08L3.08 19.51C3.17 19.85 3.35 20.16 3.59 20.41C3.84 20.65 4.15 20.83 4.49 20.92L20.93 4.49C20.74 3.8 20.2 3.26 19.51 3.08ZM11.88 3L3 11.88V14.71L14.71 3H11.88ZM5 3C3.9 3 3 3.9 3 5V7L7 3H5ZM19 21C19.55 21 20.05 20.78 20.41 20.41C20.78 20.05 21 19.55 21 19V17L17 21H19ZM9.29 21H12.12L21 12.12V9.29L9.29 21Z" fill="#323232"/>
</g>
<defs>
<clipPath id="clip0_147_3737">
<rect width="24" height="24" fill="white"/>
</clipPath>
</defs>
</svg>
